images/compass.svg

<svg width="37" height="36" viewBox="0 0 37 36" fill="none" xmlns="http://www.w3.org/2000/svg">
<g id="explore_24px">
<path id="icon/action/explore_24px" fill-rule="evenodd" clip-rule="evenodd" d="M3.08333 18C3.08333 9.72 9.99 3 18.5 3C27.01 3 33.9167 9.72 33.9167 18C33.9167 26.28 27.01 33 18.5 33C9.99 33 3.08333 26.28 3.08333 18ZM6.16667 18C6.16667 24.615 11.7013 30 18.5 30C25.2987 30 30.8333 24.615 30.8333 18C30.8333 11.385 25.2987 6 18.5 6C11.7013 6 6.16667 11.385 6.16667 18ZM10.0208 26.25L21.5988 21.015L26.9792 9.75L15.4013 14.985L10.0208 26.25ZM20.1958 18C20.1958 17.085 19.4404 16.35 18.5 16.35C17.5596 16.35 16.8042 17.085 16.8042 18C16.8042 18.915 17.5596 19.65 18.5 19.65C19.4404 19.65 20.1958 18.915 20.1958 18Z" fill="#333333"/>
</g>
</svg>

<svg width="37" height="36" fill="none" xmlns="http://www.w3.org/2000/svg"><path fill-rule="evenodd" clip-rule="evenodd" d="M3.083 18C3.083 9.72 9.99 3 18.5 3s15.417 6.72 15.417 15c0 8.28-6.907 15-15.417 15S3.083 26.28 3.083 18zm3.084 0c0 6.615 5.534 12 12.333 12s12.333-5.385 12.333-12S25.3 6 18.5 6 6.167 11.385 6.167 18zm3.854 8.25l11.578-5.235 5.38-11.265-11.578 5.235-5.38 11.265zM20.196 18c0-.915-.756-1.65-1.696-1.65s-1.696.735-1.696 1.65c0 .915.756 1.65 1.696 1.65s1.696-.735 1.696-1.65z" fill="#333"/></svg>
